src/16/actions/document-save-as.svg

<svg xmlns="http://www.w3.org/2000/svg" width="16" height="16" viewBox="0 0 16 16">
 <defs>
  <style id="current-color-scheme" type="text/css">
   .ColorScheme-Text { color:#565656; } .ColorScheme-Highlight { color:#5294e2; }
  </style>
 </defs>
 <path style="fill:currentColor" class="ColorScheme-Text" d="M 5.9902344 1.0195312 L 6 7.0195312 L 3.6582031 7.0195312 L 6.9980469 11.880859 L 6.9980469 9.8945312 C 6.9980469 8.8839313 7.8992069 8.0507812 8.8730469 8.0507812 L 11.65625 8.0507812 L 12.373047 7.0195312 L 9.9980469 7.0195312 L 9.9882812 1.0195312 L 5.9902344 1.0195312 z M 8.8808594 9.0507812 C 8.3884094 9.0507812 8.0058594 9.4063713 8.0058594 9.8945312 L 8.0058594 15.113281 C 8.0058594 15.601441 8.3884094 15.957031 8.8808594 15.957031 L 15.130859 15.957031 C 15.623309 15.957031 16.005859 15.601441 16.005859 15.113281 L 16.005859 9.8945312 C 16.005859 9.4063713 15.623309 9.0507812 15.130859 9.0507812 L 8.8808594 9.0507812 z M 10.005859 10.019531 L 13.005859 10.019531 L 13.005859 11.019531 L 12.005859 11.019531 L 12.005859 14.019531 L 13.005859 14.019531 L 13.005859 15.019531 L 10.005859 15.019531 L 10.005859 14.019531 L 11.005859 14.019531 L 11.005859 11.019531 L 10.005859 11.019531 L 10.005859 10.019531 z M 1 14.03125 L 1 16 L 7.2578125 16 C 7.1014025 15.73508 7.0019531 15.435541 7.0019531 15.113281 L 7.0019531 14.03125 L 1 14.03125 z"/>
</svg>

<svg xmlns="http://www.w3.org/2000/svg" width="16" height="16"><defs><style id="current-color-scheme" type="text/css"></style></defs><path d="M5.99 1.02l.01 6H3.658l3.34 4.86V9.896c0-1.011.901-1.844 1.875-1.844h2.783l.717-1.031H9.998l-.01-6H5.99zm2.89 8.03c-.492 0-.874.356-.874.845v5.218c0 .488.382.844.875.844h6.25c.492 0 .875-.356.875-.844V9.895c0-.489-.383-.844-.875-.844H8.88zm1.126.97h3v1h-1v3h1v1h-3v-1h1v-3h-1v-1zM1 14.03V16h6.258a1.74 1.74 0 0 1-.256-.887v-1.082H1z" fill="currentColor" color="#565656"/></svg>
